Gruvbox-Plus-Dark/actions/16/im-google.svg

<svg xmlns="http://www.w3.org/2000/svg" width="16" height="16" viewBox="0 0 16 16">
 <defs>
  <style id="current-color-scheme" type="text/css">
   .ColorScheme-Text { color:#ebdbb2; } .ColorScheme-Highlight { color:#458588; }
  </style>
 </defs>
 <path style="fill:currentColor" class="ColorScheme-Text" d="M 8.7792969 1 C 8.2856869 1 7.7521813 1.0629238 7.1757812 1.1835938 C 6.6106013 1.3066338 6.0681344 1.5817456 5.5527344 2.0097656 C 5.1658944 2.3561556 4.8798 2.74778 4.6875 3.1875 C 4.49519 3.61553 4.3964844 4.0465894 4.3964844 4.4746094 C 4.3964844 4.8297394 4.4626831 5.1839025 4.5957031 5.5390625 C 4.7265031 5.8831225 4.918645 6.1878244 5.171875 6.4589844 C 5.425115 6.7278144 5.7378981 6.9482806 6.1113281 7.1191406 C 6.4825081 7.2783306 6.910455 7.359375 7.390625 7.359375 L 7.6796875 7.359375 C 7.7757875 7.345375 7.8726 7.3320125 7.96875 7.3203125 C 7.92065 7.4293625 7.8786369 7.5409637 7.8417969 7.6523438 C 7.8065969 7.7503437 7.7890625 7.8779094 7.7890625 8.0371094 C 7.7890625 8.3199294 7.8421919 8.5560231 7.9511719 8.7519531 C 8.0713619 8.9362231 8.197315 9.1142963 8.328125 9.2851562 C 8.125195 9.2991562 7.8846919 9.3171437 7.6074219 9.3398438 C 7.3301419 9.3649437 7.0373763 9.4094631 6.7226562 9.4707031 C 6.4101562 9.5319031 6.0926412 9.6110144 5.7695312 9.7089844 C 5.4570312 9.8186144 5.1620256 9.9599994 4.8847656 10.130859 C 4.3559256 10.449839 3.9953213 10.817435 3.8007812 11.234375 C 3.5978513 11.662395 3.4960938 12.043027 3.4960938 12.373047 C 3.4960938 12.714767 3.5736556 13.040723 3.7285156 13.345703 C 3.8855956 13.664683 4.1258119 13.945703 4.4511719 14.189453 C 4.7742719 14.436703 5.1799262 14.633517 5.6601562 14.779297 C 6.1532163 14.927417 6.7223469 15 7.3730469 15 C 8.1416869 15 8.8223094 14.89451 9.4121094 14.6875 C 10.013049 14.49215 10.512656 14.226544 10.910156 13.896484 C 11.305386 13.577504 11.605387 13.211862 11.810547 12.794922 C 12.013467 12.380312 12.117188 11.957317 12.117188 11.529297 C 12.117188 11.210327 12.075194 10.929674 11.990234 10.683594 C 11.907534 10.439834 11.790714 10.219368 11.646484 10.023438 C 11.515674 9.8274975 11.352466 9.6415531 11.160156 9.4707031 C 10.981276 9.2998431 10.793872 9.1278912 10.601562 8.9570312 L 9.953125 8.4414062 C 9.857025 8.3569062 9.7535413 8.2598175 9.6445312 8.1484375 C 9.5377613 8.0277275 9.4824219 7.8613169 9.4824219 7.6542969 C 9.4824219 7.4443669 9.5377413 7.2727919 9.6445312 7.1386719 C 9.7535413 7.0045419 9.8680912 6.8746163 9.9882812 6.7539062 C 10.180581 6.6057862 10.367995 6.4521587 10.546875 6.2929688 C 10.727995 6.1221087 10.888973 5.9381175 11.033203 5.7421875 C 11.177433 5.5351675 11.294223 5.3020919 11.376953 5.0449219 C 11.462453 4.7877619 11.503906 4.4882044 11.503906 4.1464844 C 11.503906 3.8024244 11.455595 3.4957694 11.359375 3.2246094 C 11.263175 2.9557794 11.148675 2.7252369 11.015625 2.5292969 C 10.884825 2.3216969 10.745783 2.1477919 10.601562 2.0136719 C 10.457342 1.8678819 10.329436 1.7523156 10.222656 1.6660156 L 10.222656 1.6601562 L 11.341797 1.6601562 L 12.496094 1 L 8.7792969 1 z M 7.6445312 1.6074219 L 7.6464844 1.6074219 C 8.0176844 1.6074219 8.3418706 1.7229881 8.6191406 1.9550781 C 8.9075906 2.1760881 9.1475437 2.4567313 9.3398438 2.8007812 C 9.5315938 3.1425012 9.6753344 3.5104737 9.7714844 3.9023438 C 9.8676844 4.2936237 9.9160156 4.654315 9.9160156 4.984375 C 9.9160156 5.156985 9.89185 5.3717463 9.84375 5.6289062 C 9.79575 5.8860763 9.6677737 6.1191519 9.4648438 6.3261719 C 9.3206138 6.4742919 9.13321 6.5953894 8.90625 6.6933594 C 8.6915 6.7908594 8.4702275 6.8413169 8.2421875 6.8417969 L 8.2382812 6.8417969 C 7.8550712 6.8412069 7.5200419 6.7297587 7.2324219 6.5117188 C 6.9551519 6.2796288 6.7215969 5.9960756 6.5292969 5.6660156 C 6.3481769 5.3359556 6.2094312 4.9797594 6.1132812 4.5996094 C 6.0277812 4.2188194 5.9863281 3.8772156 5.9863281 3.5722656 C 5.9863281 3.3267556 6.0105937 3.0875587 6.0585938 2.8554688 C 6.1172937 2.6227988 6.2260094 2.4088206 6.3808594 2.2128906 C 6.5250894 2.0280306 6.7122063 1.8828644 6.9414062 1.7714844 C 7.1683762 1.6624344 7.4041512 1.6074219 7.6445312 1.6074219 z M 8.2792969 9.796875 L 8.7460938 9.796875 C 8.8070937 9.796875 8.8712494 9.8052063 8.9433594 9.8164062 C 9.2798894 10.062486 9.574895 10.280623 9.828125 10.476562 C 10.081365 10.672493 10.286279 10.864355 10.443359 11.046875 C 10.598219 11.231155 10.713046 11.415136 10.785156 11.597656 C 10.868456 11.793596 10.912109 12.008144 10.912109 12.240234 L 10.914062 12.240234 C 10.914062 12.816374 10.684676 13.287497 10.228516 13.654297 C 9.7829856 14.035087 9.1268656 14.224609 8.2597656 14.224609 C 7.2859556 14.224609 6.5098938 14.016559 5.9335938 13.599609 C 5.3678638 13.182669 5.0859375 12.645115 5.0859375 11.984375 C 5.0859375 11.651985 5.145455 11.379213 5.265625 11.158203 C 5.399225 10.937193 5.5485269 10.753212 5.7167969 10.607422 C 5.8845069 10.459302 6.0543862 10.342362 6.2226562 10.257812 C 6.4037662 10.182613 6.5405588 10.128537 6.6367188 10.091797 C 6.8284488 10.030597 7.0272619 9.9755544 7.2324219 9.9277344 C 7.4353519 9.8892344 7.6274738 9.8590844 7.8085938 9.8339844 C 7.9897237 9.8222844 8.1462469 9.808575 8.2792969 9.796875 z"/>
</svg>

<svg width="16" height="16" version="1.1" viewBox="0 0 16 16" xmlns="http://www.w3.org/2000/svg">
  <defs>
    <style type="text/css">.ColorScheme-Text { color:#ebdbb2; } .ColorScheme-Highlight { color:#458588; }</style>
  </defs>
  <path class="ColorScheme-Text" d="m8.779 1c-0.4936 0-1.027 0.06292-1.604 0.1836-0.5652 0.123-1.108 0.3982-1.623 0.8262-0.3868 0.3464-0.6729 0.738-0.8652 1.178-0.1923 0.428-0.291 0.8591-0.291 1.287 0 0.3551 0.0662 0.7093 0.1992 1.064 0.1308 0.3441 0.3229 0.6488 0.5762 0.9199 0.2532 0.2688 0.566 0.4893 0.9395 0.6602 0.3712 0.1592 0.7991 0.2402 1.279 0.2402h0.2891c0.0961-0.014 0.1929-0.02736 0.2891-0.03906-0.0481 0.109-0.09011 0.2207-0.127 0.332-0.0352 0.098-0.05273 0.2256-0.05273 0.3848 0 0.2828 0.05313 0.5189 0.1621 0.7148 0.1202 0.1843 0.2461 0.3623 0.377 0.5332-0.2029 0.014-0.4434 0.03199-0.7207 0.05469-0.2773 0.0251-0.57 0.06962-0.8848 0.1309-0.3125 0.0612-0.63 0.1403-0.9531 0.2383-0.3125 0.1096-0.6075 0.251-0.8848 0.4219-0.5288 0.319-0.8894 0.6866-1.084 1.104-0.2029 0.428-0.3047 0.8087-0.3047 1.139 0 0.3417 0.07756 0.6677 0.2324 0.9727 0.1571 0.319 0.3973 0.6 0.7227 0.8438 0.3231 0.2472 0.7288 0.4441 1.209 0.5898 0.4931 0.1481 1.062 0.2207 1.713 0.2207 0.7686 0 1.449-0.1055 2.039-0.3125 0.6009-0.1954 1.101-0.461 1.498-0.791 0.3952-0.319 0.6952-0.6846 0.9004-1.102 0.2029-0.4146 0.3066-0.8376 0.3066-1.266 0-0.319-0.04199-0.5996-0.127-0.8457-0.0827-0.2438-0.1995-0.4642-0.3438-0.6602-0.1308-0.1959-0.294-0.3819-0.4863-0.5527-0.1789-0.1709-0.3663-0.3428-0.5586-0.5137l-0.6484-0.5156c-0.0961-0.0845-0.1996-0.1816-0.3086-0.293-0.1068-0.1207-0.1621-0.2871-0.1621-0.4941 0-0.2099 0.05532-0.3815 0.1621-0.5156 0.109-0.1341 0.2236-0.2641 0.3438-0.3848 0.1923-0.1481 0.3797-0.3017 0.5586-0.4609 0.1811-0.1709 0.3421-0.3549 0.4863-0.5508 0.1442-0.207 0.261-0.4401 0.3438-0.6973 0.0855-0.2572 0.127-0.5567 0.127-0.8984 0-0.3441-0.04831-0.6507-0.1445-0.9219-0.0962-0.2688-0.2107-0.4994-0.3438-0.6953-0.1308-0.2076-0.2698-0.3815-0.4141-0.5156-0.1442-0.1458-0.2721-0.2614-0.3789-0.3477v-0.005859h1.119l1.154-0.6602h-3.717zm-1.135 0.6074h0.001953c0.3712 0 0.6954 0.1156 0.9727 0.3477 0.2884 0.221 0.5284 0.5017 0.7207 0.8457 0.1918 0.3417 0.3355 0.7097 0.4316 1.102 0.0962 0.3913 0.1445 0.752 0.1445 1.082 0 0.1726-0.02417 0.3874-0.07227 0.6445-0.048 0.2572-0.176 0.4902-0.3789 0.6973-0.1442 0.1481-0.3316 0.2692-0.5586 0.3672-0.2148 0.0975-0.436 0.148-0.6641 0.1484h-0.003906c-0.3832-5.9e-4 -0.7182-0.112-1.006-0.3301-0.2773-0.2321-0.5108-0.5156-0.7031-0.8457-0.1811-0.3301-0.3199-0.6863-0.416-1.066-0.0855-0.3808-0.127-0.7224-0.127-1.027 0-0.2455 0.02427-0.4847 0.07227-0.7168 0.0587-0.2327 0.1674-0.4466 0.3223-0.6426 0.1442-0.1849 0.3313-0.33 0.5605-0.4414 0.227-0.109 0.4627-0.1641 0.7031-0.1641zm0.6348 8.189h0.4668c0.061 0 0.1252 0.008331 0.1973 0.01953 0.3365 0.2461 0.6315 0.4642 0.8848 0.6602 0.2532 0.1959 0.4582 0.3878 0.6152 0.5703 0.1549 0.1843 0.2697 0.3683 0.3418 0.5508 0.0833 0.1959 0.127 0.4105 0.127 0.6426h0.001953c0 0.5761-0.2294 1.047-0.6855 1.414-0.4455 0.3808-1.102 0.5703-1.969 0.5703-0.9738 0-1.75-0.208-2.326-0.625-0.5657-0.4169-0.8477-0.9545-0.8477-1.615 0-0.3324 0.05952-0.6052 0.1797-0.8262 0.1336-0.221 0.2829-0.405 0.4512-0.5508 0.1677-0.1481 0.3376-0.2651 0.5059-0.3496 0.1811-0.0752 0.3179-0.1293 0.4141-0.166 0.1917-0.0612 0.3905-0.1162 0.5957-0.1641 0.2029-0.0385 0.3951-0.06865 0.5762-0.09375 0.1811-0.0117 0.3377-0.02541 0.4707-0.03711z" fill="currentColor"/>
</svg>
